FacebookChat/images/Cog.svg

<?xml version="1.0" encoding="UTF-8"?>
<svg width="12px" height="12px" viewBox="0 0 12 12" version="1.1" xmlns="http://www.w3.org/2000/svg" xmlns:xlink="http://www.w3.org/1999/xlink">
    <!-- Generator: Sketch 48.2 (47327) - http://www.bohemiancoding.com/sketch -->
    <title>Cog</title>
    <desc>Created with Sketch.</desc>
    <defs></defs>
    <g id="Symbols" stroke="none" stroke-width="1" fill="none" fill-rule="evenodd">
        <g id="Cog" fill="#FFFFFF">
            <path d="M6.80245238,8.29344264 L8.06883879,7.23081827 L8.36719254,5.53877005 L7.52095255,4.07303939 L6,3.51945793 L4.47904745,4.07303939 L3.63280746,5.53877005 L3.93116121,7.23081827 L5.19754762,8.29344264 L6.80245238,8.29344264 Z M6.91256161,8.53261546 L6.91256161,12 L5.08743839,12 L5.08743839,8.53261546 L2.86817335,11.1774325 L1.47004786,10.004266 L3.72627095,7.31540399 L0.289201597,7.92145205 L-0.0277277226,6.12405656 L3.4290066,5.51454103 L0.382375881,3.75556797 L1.29493749,2.17496491 L4.29778058,3.90865717 L3.10409892,0.629043771 L4.81915374,0.0048148685 L6,3.24916331 L7.18084626,0.0048148685 L8.89590108,0.629043771 L7.70221942,3.90865717 L10.7050625,2.17496491 L11.6176241,3.75556797 L8.5709934,5.51454103 L12.0277277,6.12405656 L11.7107984,7.92145205 L8.27372905,7.31540399 L10.5299521,10.004266 L9.13182665,11.1774325 L6.91256161,8.53261546 Z"></path>
        </g>
    </g>
</svg>

<svg width="12" height="12" xmlns="http://www.w3.org/2000/svg"><path d="M6.802 8.293L8.07 7.231l.298-1.692-.846-1.466L6 3.519l-1.521.554-.846 1.466.298 1.692 1.267 1.062h1.604zm.11.24V12H5.088V8.533l-2.219 2.644-1.398-1.173 2.256-2.689-3.437.606-.317-1.797 3.457-.61L.382 3.757l.913-1.581 3.003 1.734L3.104.629 4.82.005 6 3.249 7.18.005l1.716.624-1.194 3.28 3.003-1.734.913 1.58-3.047 1.76 3.457.61-.317 1.796-3.437-.606 2.256 2.69-1.398 1.172-2.22-2.644z" fill="#FFF" fill-rule="evenodd"/></svg>
